src/standard/atom.svg

<svg xmlns="http://www.w3.org/2000/svg" viewBox="0 0 36 36">
  <path d="M25.62 18C35.48 6.74 33.08-1.92 18 10.39 2.9-1.94.54 6.76 10.38 18-.24 30.39 4 37.24 18 25.61c14 11.66 18.22 4.74 7.62-7.61Zm3.47-12.36c4 .29-2.36 9.22-4.3 11.4A59.41 59.41 0 0 0 19 11.21c4.5-3.77 8.26-5.57 10.09-5.57ZM24 18a60.18 60.18 0 0 1-6 6 60.18 60.18 0 0 1-6-6 60.18 60.18 0 0 1 6-6 60.18 60.18 0 0 1 6 6ZM7.21 11.36C2 1.62 11 6.14 17 11.21A59.41 59.41 0 0 0 11.21 17a39.13 39.13 0 0 1-4-5.64Zm-1.27 18.7C4.43 28 9 21.53 11.21 19A60.63 60.63 0 0 0 17 24.8c-5.59 4.66-10 6.31-11.06 5.26Zm24.12 0c-1 1.05-5.47-.59-11.1-5.26a60.63 60.63 0 0 0 5.83-5.8c2.21 2.51 6.79 9 5.27 11.06Z"/>
  <path d="M18 15.38a2.62 2.62 0 0 0 0 5.24 2.62 2.62 0 0 0 0-5.24Zm0 4a1.38 1.38 0 0 1 0-2.75 1.38 1.38 0 0 1 0 2.75Z"/>
</svg>

<svg id="a787f4a4-e36a-408e-9c29-8df4fbfb84d3" data-name="Icon" xmlns="http://www.w3.org/2000/svg" viewBox="0 0 36 36">
  <title>Atom icon - Black</title>
<desc>atom, science, neutron, proton, atomic, reaction, electron, molecule, science and nature</desc>
<metadata><?xpacket begin="﻿" id="W5M0MpCehiHzreSzNTczkc9d"?>
<x:xmpmeta xmlns:x="adobe:ns:meta/" x:xmptk="Adobe XMP Core 8.0-c001 1.000000, 0000/00/00-00:00:00        ">
   <rdf:RDF xmlns:rdf="http://www.w3.org/1999/02/22-rdf-syntax-ns#">
      <rdf:Description rdf:about=""
            xmlns:xmp="http://ns.adobe.com/xap/1.0/"
            xmlns:dc="http://purl.org/dc/elements/1.1/"
            xmlns:cq="http://www.day.com/jcr/cq/1.0"
            xmlns:tiff="http://ns.adobe.com/tiff/1.0/">
         <xmp:rhcc-effective-on>2023-12-08T17:40:54.307Z</xmp:rhcc-effective-on>
         <xmp:rhcc-metadata-complete-moderator>pending</xmp:rhcc-metadata-complete-moderator>
         <xmp:rhcc-translation-id>TRAddea8522-6c5b-4d61-8077-3a6dc529a7a3</xmp:rhcc-translation-id>
         <xmp:brand-content-type>Icon</xmp:brand-content-type>
         <xmp:CreateDate>2023-12-08T17:40:54.307Z</xmp:CreateDate>
         <xmp:rhcc-effective-on-set-on-upload>true</xmp:rhcc-effective-on-set-on-upload>
         <xmp:rhcc-metadata-complete-uploader>pending</xmp:rhcc-metadata-complete-uploader>
         <xmp:rhcc-file-last-modified>2023-12-08T17:42:21.201Z</xmp:rhcc-file-last-modified>
         <xmp:rhcc-audience>rhcc-audience:internal</xmp:rhcc-audience>
         <xmp:rhcc-rights-restricted>no</xmp:rhcc-rights-restricted>
         <xmp:brand-content-subtype>Icon</xmp:brand-content-subtype>
         <xmp:rhcc-derivative-id>DERddea8522-6c5b-4d61-8077-3a6dc529a7a3</xmp:rhcc-derivative-id>
         <xmp:brand-logo-color>Black</xmp:brand-logo-color>
         <xmp:rhcc-notify-portal-subscribers-on-change>yes</xmp:rhcc-notify-portal-subscribers-on-change>
         <dc:format>image/svg+xml</dc:format>
         <dc:modified>2024-02-09T20:26:01.453Z</dc:modified>
         <dc:title>
            <rdf:Alt>
               <rdf:li xml:lang="x-default">Atom icon - Black</rdf:li>
            </rdf:Alt>
         </dc:title>
         <dc:description>
            <rdf:Alt>
               <rdf:li xml:lang="x-default">atom, science, neutron, proton, atomic, reaction, electron, molecule, science and nature</rdf:li>
            </rdf:Alt>
         </dc:description>
         <cq:lastReplicationAction_scene7>Activate</cq:lastReplicationAction_scene7>
         <cq:lastReplicationAction_publish>Activate</cq:lastReplicationAction_publish>
         <cq:lastReplicated_publish>2024-02-09T22:10:30.373Z</cq:lastReplicated_publish>
         <cq:lastReplicatedBy>workflow-process-service</cq:lastReplicatedBy>
         <cq:lastReplicationAction>Activate</cq:lastReplicationAction>
         <cq:lastReplicatedBy_publish>workflow-process-service</cq:lastReplicatedBy_publish>
         <cq:isDelivered>true</cq:isDelivered>
         <cq:lastReplicated>2024-02-09T22:10:30.373Z</cq:lastReplicated>
         <cq:lastReplicatedBy_scene7>workflow-process-service</cq:lastReplicatedBy_scene7>
         <cq:lastReplicated_scene7>2024-02-09T22:10:30.373Z</cq:lastReplicated_scene7>
         <tiff:ImageLength>36</tiff:ImageLength>
         <tiff:ImageWidth>36</tiff:ImageWidth>
      </rdf:Description>
   </rdf:RDF>
</x:xmpmeta>
                                                                                                    
                                                                                                    
                                                                                                    
                                                                                                    
                                                                                                    
                                                                                                    
                                                                                                    
                                                                                                    
                                                                                                    
                                                                                                    
                                 
<?xpacket end="w"?></metadata>
<g>
    <path d="M25.62,18C35.48,6.74,33.08-1.92,18,10.39,2.9-1.94.54,6.76,10.38,18-.24,30.39,4,37.24,18,25.61,32,37.27,36.22,30.35,25.62,18ZM29.09,5.64c4,.29-2.36,9.22-4.3,11.4A59.41,59.41,0,0,0,19,11.21C23.5,7.44,27.26,5.64,29.09,5.64ZM24,18a60.18,60.18,0,0,1-6,6,60.18,60.18,0,0,1-6-6,60.18,60.18,0,0,1,6-6A60.18,60.18,0,0,1,24,18ZM7.21,11.36C2,1.62,11,6.14,17,11.21A59.41,59.41,0,0,0,11.21,17,39.13,39.13,0,0,1,7.21,11.36ZM5.94,30.06C4.43,28,9,21.53,11.21,19A60.63,60.63,0,0,0,17,24.8C11.41,29.46,7,31.11,5.94,30.06Zm24.12,0c-1,1.05-5.47-.59-11.1-5.26A60.63,60.63,0,0,0,24.79,19C27,21.51,31.58,28,30.06,30.06Z"/>
    <path d="M18,15.38a2.62,2.62,0,0,0,0,5.24A2.62,2.62,0,0,0,18,15.38Zm0,4a1.38,1.38,0,0,1,0-2.75A1.38,1.38,0,0,1,18,19.38Z"/>
  </g>
</svg>
